!!!OTL: Das Dutzend voll.
!!!OTL-incipit: DIE MUTTER ZEIHT MICH
!!!ARE: Europa, Mitteleuropa, Deutschland, Niederrhein
!!!SCT: Z1187
!!!TXL: @@DE
!!!YEM: Copyright 1995, estate of Helmut Schaffrath.
**kern	**text
*ICvox	*
*M3/4	*
*k[b-e-a-d-]	*
*A-:	*
!LO:TX:a:t=Vorſänger.	!
!LO:TX:a:t=Vom Niederrheine.	!
{8a-L	Die
8b-J	.
=1	=1
4cc	Mutter
4a-	.
4cc	ʒeiht
=2	=2
(4b-/	mich,
4g)	.
!LO:TX:a:t=Alle.	!
4a-	ho
=3	=3
4f	ho!
4r	.
4b-/	ſo
=4	=4
4e-	ſo!
4r}	.
!LO:TX:a:t=Vorſänger.	!
{8a-\	ʒwölf
8b-	der
=5	=5
(4cc	Kna-
4a-)	.
4dd-	-ben
=6	=6
8cc	frei-
8cc	-ten
4a-	mich!
!LO:TX:a:t=Alle.	!
4b-/	ho
=7	=7
4f	ho!
4r	.
4g	ſo
=8	=8
4a-	ſo!
4r}	.
!LO:TX:a:t=Vorſänger.	!
{8a-\	ʒwölf
8b-	der
=9	=9
(4cc	Kna-
4a-)	.
4dd-	-ben
=10	=10
8cc	frei-
8cc	-ten
4a-	mich!
!LO:TX:a:t=Alle.	!
4b-/	ho
=11	=11
4f	ho!
4r	.
4g	ſo
=12	=12
4a-	ſo!
4r}	.
==	==
!!!AGN: Liebes - Lied
!!!ONB: ESAC (Essen Associative Code) Database: ZUCCAL
!!!AMT: simple triple
!!!AIN: vox
!!!EED: Helmut Schaffrath
!!!EEV: 1.0
!!!GTL: V. Lieder der Minne.
!!!URL-scan: https://www.digitale-sammlungen.de/de/view/bsb11160573?page=386
!!!ENC: Anna Maria Matuszewska
!!!EEV: 2025/02/05
*-	*-
